X:1
T:Title
%%score { ( 1 3 ) | 2 }
L:1/8
M:4/4
K:Ab
V:1 treble nm="Grand Piano"
V:3 treble 
V:2 bass 
V:1
 z4 z2[Q:1/4=100] [CA][DB] | [Ec][Ee][Ee][Ec] [DB]<[CA] [EA]B |[M:3/4] c[EA] FA E2 |[M:1/4] AB | %4
[M:4/4] c2 e>[Be] [Ece]2 [EAc][EA] | [EGB]6 [EA][EGB] |[M:3/4] [EAc][CAe] [CAe][Ec] [DB]<[CA] | %7
[M:1/4] [CA]E |[M:4/4] F[FA][FA][FB] [=Ec]2 [Ff][Bf] | [EAe][CAe][Ee][Fd] [Ec]2 [DB]2 | %10
[M:3/4] [CA]6 |[M:1/4] c>d |[M:4/4] e6 z2 | [Ac]2 [GB]4 B>c | d6 z2 | B2 A4 cd | e2 e2 c2 cc | %17
[M:9/8] [FB]2 [Fc]- [Fc] [Fd]2- [Fd] [A=d]2 |[M:4/4] [Ae]>[Ae] [Ae]>[Ae] [Ae]2 [Ec]>[A,CA] | %19
[M:3/4] [DEB]4 [CEA]2 |] %20
V:2
 z4 z2 [A,,A,][A,,A,] | [A,,A,][A,,C][A,,C][A,,A,] [A,,A,]<[A,,A,] [C,A,][E,G,E] | %2
[M:3/4] [A,E][C,A,] [D,A,D][F,A,D][K:treble] [A,C]2 |[M:1/4] [A,CE][A,DE] | %4
[M:4/4] [A,EA]2 [A,CA]>[K:bass][A,D] A,2 A,C, | E,4- E,D,C,B,, | %6
[M:3/4] A,,A,, A,,[A,,A,] [A,,A,]<[A,,A,] |[M:1/4] [A,,A,][C,A,] | %8
[M:4/4] [D,A,D][D,A,][D,A,][D,F,] [C,G,]2 [D,A,][D,D] | C,A,,[C,A,][D,A,] [E,A,]2 [E,G,]2 | %10
[M:3/4] [A,,A,]6 |[M:1/4] z2 |[M:4/4] z2[K:treble] [A,C]>[A,D] [A,E]2 [A,EA][A,C] | %13
 [E,E]2 [E,E]4 z2 | z2 [E,E]>[E,E] [E,E]2 [E,D]>[E,DE] | [A,DE]2 [A,CE]4 [A,E][A,B,E] | %16
 [A,CA]2 [A,CA]2[K:bass] [A,E]2 [A,E][A,E] | %17
[M:9/8] [D,A,]2 [C,=A,]- [C,A,] [B,,B,]2- [B,,B,] [B,,B,]2 | %18
[M:4/4] [E,C]>[E,C] [E,C]>[E,C] [E,C]2 [E,A,]>E, |[M:3/4] E,4 A,,2 |] %20
V:3
 x8 | x8 |[M:3/4] x6 |[M:1/4] x2 |[M:4/4] x8 | x8 |[M:3/4] x6 |[M:1/4] x2 |[M:4/4] x8 | x8 | %10
[M:3/4] x6 |[M:1/4] x2 |[M:4/4] z2 A>B c2 cA | x8 | z2 G>G G2 [GB]>G | x8 | x8 |[M:9/8] x9 | %18
[M:4/4] x8 |[M:3/4] x6 |] %20

